X:1

T:Barney O’Neill

M:6/8

L:1/8

R:Jig

S:O’Neill – Dance Music of Ireland: 1001 Gems (1907), No. 296

Z:AK/Fiddler’s Companion

K:D

d/B/|AFD DFA|B2d F2A|AFD DEF|GFG EFG|AFD DFA|B2d F2A|Bdd F2E|FDD D2:|

|:g|fed dAd|efe efg|fed faa|agf eag|fed B2d|A2d F2A|Bdd F2E|FDD D2:|

                       

BARNEY'S BALMORAL. Scottish, Pipe Reel. Composed by Pipe Sergeant E. Macdonald, with third and fourth parts by A. Macdonald. Tartan Tapes CDTT1004, Aiden O’Rourke – “Heat the Hoose” (1998).

                       

BARNEY'S GOAT. AKA and see "Óró, a Thaidhg, a Ghrá,"  "The Peeler's Jig,," "Skin the Peeler(s)," "The Butterfly [3].” Irish, Slip Jig. G Major. Standard tuning. AABB. Cole (1000 Fiddle Tunes), 1940; pg. 69. Ryan’s Mammoth Collection, 1883; pg. 100.

